X:1
T:Faust Waltz (theme)
C:Charles Gounod
M:3/4
L:1/4
Q:1/4=176
K:D
F | A d2 | B A G | F d c | B A G | F A c | d c B | A G F | G3 | A d2 | c B A | G A B | A3 |]
